src/Icons/TabBar/Wallet.svg

<svg width="40" height="32" viewBox="0 0 40 32" fill="none" xmlns="http://www.w3.org/2000/svg">
<path d="M7.89453 11.5526V22.4474C7.89453 25.7901 10.6044 28.5 13.9472 28.5H28.4735C30.9554 28.5 33.0885 27.0061 34.0225 24.8684H27.8682C24.8597 24.8684 22.4208 22.4296 22.4208 19.4211V14.5789C22.4208 11.5704 24.8597 9.13158 27.8682 9.13158H34.0225C33.0885 6.9939 30.9554 5.5 28.4735 5.5H13.9472C10.6044 5.5 7.89453 8.20986 7.89453 11.5526Z" fill="black"/>
<path fill-rule="evenodd" clip-rule="evenodd" d="M24.8419 14.5789V19.4211C24.8419 21.0924 26.1968 22.4474 27.8682 22.4474H33.9208C35.5922 22.4474 36.9472 21.0924 36.9472 19.4211V14.5789C36.9472 12.9076 35.5922 11.5526 33.9208 11.5526H27.8682C26.1968 11.5526 24.8419 12.9076 24.8419 14.5789ZM30.8945 17C30.8945 18.0028 30.0816 18.8158 29.0787 18.8158C28.0759 18.8158 27.263 18.0028 27.263 17C27.263 15.9972 28.0759 15.1842 29.0787 15.1842C30.0816 15.1842 30.8945 15.9972 30.8945 17Z" fill="black"/>
</svg>

<svg width="40" height="32" viewBox="0 0 40 32" fill="none" xmlns="http://www.w3.org/2000/svg"><path d="M7.895 11.553v10.894a6.053 6.053 0 0 0 6.052 6.053h14.527a6.054 6.054 0 0 0 5.549-3.632h-6.155a5.447 5.447 0 0 1-5.447-5.447V14.58a5.447 5.447 0 0 1 5.447-5.447h6.155a6.054 6.054 0 0 0-5.55-3.632H13.948a6.053 6.053 0 0 0-6.052 6.053z" fill="#000"/><path fill-rule="evenodd" clip-rule="evenodd" d="M24.842 14.579v4.842a3.026 3.026 0 0 0 3.026 3.026h6.053a3.026 3.026 0 0 0 3.026-3.026V14.58a3.026 3.026 0 0 0-3.026-3.026h-6.053a3.026 3.026 0 0 0-3.026 3.026zM30.895 17a1.816 1.816 0 1 1-3.632 0 1.816 1.816 0 0 1 3.631 0z" fill="#000"/></svg>
